svgs/regular/message-bot.svg

<svg xmlns="http://www.w3.org/2000/svg" viewBox="0 0 640 512"><!--! Font Awesome Pro 6.6.0 by @fontawesome - https://fontawesome.com License - https://fontawesome.com/license (Commercial License) Copyright 2024 Fonticons, Inc. --><path d="M272 368l-48 0-64 0c-8.8 0-16-7.2-16-16l0-160 0-128c0-8.8 7.2-16 16-16l320 0c8.8 0 16 7.2 16 16l0 128 0 160c0 8.8-7.2 16-16 16l-106.7 0-16 0-12.8 9.6L272 432l0-16 0-48zM96 208l0 144c0 35.3 28.7 64 64 64l16 0 48 0 0 48 0 4 0 .3 0 6.4 0 21.3c0 6.1 3.4 11.6 8.8 14.3s11.9 2.1 16.8-1.5L266.7 496l5.1-3.8 .2-.2 101.3-76L480 416c35.3 0 64-28.7 64-64l0-144 36.3 0c5.5 9.6 15.9 16 27.7 16c17.7 0 32-14.3 32-32s-14.3-32-32-32c-11.8 0-22.2 6.4-27.7 16L544 176l0-112c0-35.3-28.7-64-64-64L160 0C124.7 0 96 28.7 96 64l0 112-36.3 0c-5.5-9.6-15.9-16-27.7-16c-17.7 0-32 14.3-32 32s14.3 32 32 32c11.8 0 22.2-6.4 27.7-16L96 208zm80-80l0 128c0 17.7 14.3 32 32 32l224 0c17.7 0 32-14.3 32-32l0-128c0-17.7-14.3-32-32-32L208 96c-17.7 0-32 14.3-32 32zm32 64a32 32 0 1 1 64 0 32 32 0 1 1 -64 0zm192-32a32 32 0 1 1 0 64 32 32 0 1 1 0-64z"/></svg>

<svg xmlns="http://www.w3.org/2000/svg" viewBox="0 0 640 512"><!--! Font Awesome Pro 6.4.0 by @fontawesome - https://fontawesome.com License - https://fontawesome.com/license (Commercial License) Copyright 2023 Fonticons, Inc. --><path d="M272 368H224 160c-8.8 0-16-7.2-16-16V192 64c0-8.8 7.2-16 16-16H480c8.8 0 16 7.2 16 16V192 352c0 8.8-7.2 16-16 16H373.3h-16l-12.8 9.6L272 432V416 368zM96 208V352c0 35.3 28.7 64 64 64h16 48v48 4 .3 6.4V496c0 6.1 3.4 11.6 8.8 14.3s11.9 2.1 16.8-1.5L266.7 496l5.1-3.8 .2-.2 101.3-76H480c35.3 0 64-28.7 64-64V208h36.3c5.5 9.6 15.9 16 27.7 16c17.7 0 32-14.3 32-32s-14.3-32-32-32c-11.8 0-22.2 6.4-27.7 16H544V64c0-35.3-28.7-64-64-64H160C124.7 0 96 28.7 96 64V176H59.7c-5.5-9.6-15.9-16-27.7-16c-17.7 0-32 14.3-32 32s14.3 32 32 32c11.8 0 22.2-6.4 27.7-16H96zm80-80V256c0 17.7 14.3 32 32 32H432c17.7 0 32-14.3 32-32V128c0-17.7-14.3-32-32-32H208c-17.7 0-32 14.3-32 32zm32 64a32 32 0 1 1 64 0 32 32 0 1 1 -64 0zm192-32a32 32 0 1 1 0 64 32 32 0 1 1 0-64z"/></svg>
